X:1
T:Partita III Fantasia
T:BWV 827
T:J. S. Bach
%%score { 1 | 2 }
L:1/8
M:3/8
K:C
V:1 treble nm="Harp"
V:2 bass 
V:1
 z/ A/B/^G/A/c/ | D/B/E/D/C/B,/ | CEA- | A^GB- | B/A/^G/A/B/c/ | d/f/B/f/e/d/ | cB/A/f- | fe/d/g | %8
 e/c/d/B/c/e/ | a/B/c/A/B/d/ | g/A/B/^G/A/c/ | fdG | ecF | d/E/F/D/E/^G/ | cBA | ^G/A/B/F/E/D/ | %16
 C/E/F/D/E/A/ | B/E/F/D/E/B/ | c/E/F/D/E/c/ | B/A/^G/B/E | z/ e/f/d/e/c/ | B/e/f/d/e/B/ | %22
 A/e/f/d/e/A/ | ^G/B/E/c/d/B/ | c/e/A/^G/A/c/ | ^F/A/D/B/c/A/ | B/d/G/^F/G/B/ | E/G/C/A/B/G/ | %28
 A/c/^F/E/F/A/ | ^D/^F/B,/G/A/F/ | GBe- | e^d^f- | f/e/^f/^d/e/g/ | A/^f/B/A/G/^F/ | G^F/E/c- | %35
 cB/A/d | B/c/d/e/^f/g/ | a/c'/^f/c'/b/a/ | gbe | cad | Bgc | A/^F/G/E/F/A/ | d/E/^F/^D/E/G/ | %43
 c/^D/E/^C/D/^F/ | B/E/A/B,/C/A,/ | B,/^D/^F/A/G/F/ | G/B/d/A/B/e/ | ^f/B/c/A/B/f/ | g/B/c/A/B/g/ | %49
 ^f/e/^d/f/B- | Be/^f/g | AA/4G/4^F/G/A/ | B/G/A/^F/G/e/ | %53
 G/4^F/4E/4[F^^F]/4G/4^F/4G/4F/4G/4F/4G/4F/4 | G/4^F/4B/e/^d/e/g/ | c/e/A/^f/g/e/ | %56
 ^f/a/d/^c/d/f/ | B/d/G/e/^f/^d/ | e/g/c/B/c/e/ | A/c/^F/^d/e/^c/ | ^d/^f/B/g/a/f/ | g3- | %62
 g/e/^f/^d/e/c'/ | b/e/^f/^d/e/b/ | ag/4^f/4e/4[ff]/4g/4f/4e/4f/4 | e3- | e/B/^c/e/g/d/ | %67
 e/g/_b/g/e/f/ | g/e/^c/_B/A/g/ | f3- | f/A/B/d/f/c/ | d/f/_a/f/d/e/ | f/d/B/_A/G/f/ | e3- | %74
 e/a/b/^g/a/c'/ | d/^g/a/^f/g/b/ | c/a/f/d/B/d/ | A/4^G/4A/4G/4A/4G/4^F/E | z/ e/f/d/e/c/ | %79
 B/e/f/d/e/B/ | A/e/f/d/e/A/ | ^G/B/E/c/d/B/ | c/e/A/f/g/e/ | f/a/d/c/d/f/ | B/d/G/e/f/d/ | %85
 e/g/c/B/c/e/ | A/c/F/d/e/c/ | d/f/B/A/B/d/ | ^G/B/E/c/d/B/ | c/e/A/^G/A/c/ | d/f/A/^G/A/d/ | %91
 e/g/A/^G/A/e/ | f3- | f/A/B/^G/A/f/ | e/A/B/^G/A/e/ | dc/4B/4A/4B/4c/4B/4A/4B/4 | A/E/F/D/E/A/ | %97
 B/E/F/D/E/B/ | c/E/F/D/E/c/ | B/A/^G/^F/E/D/ |{D} C>A^G/A/ |{E} D>A^G/A/ | E/^G/A/B/c- | %103
 c/A/B/^G/A/c/ | f3- | f/d/e/^c/d/f/ | b3- | b/c/d/B/c/e/ | a/B/c/A/B/d/ | g/A/B/^G/A/c/ | fdG | %111
 ecF | d/E/F/D/E/^G/ | c/^D/E/^C/D/^F/ | A/^F/^D/C/B,/A/ | ^G/B/d/f/e- | e/A/c/B/A/^G/ | %117
 A/E/F/D/_B/^G/ | A/c/E/A/B/^G/ | A3 |] %120
V:2
 A,A,,A,- | A,^G,E, | z/ A,/B,/^G,/A,/C/ | D,/B,/E,/D,/C,/B,,/ | C,E,A,- | A,^G,B,- | %6
 B,/A,/^G,/A,/B,/C/ | D/F/B,/F/E/D/ | CEA, | FDG, | ECF, | D/B,/C/A,/B,/D/ | G/A,/B,/G,/A,/C/ | %13
 F/^G,/A,/^F,/G,/B,/ | E/A,/D/E,/F,/D,/ | E,^G,E, | A,A,,A,- | A,/^G,/A,/^F,/G,/E,/ | %18
 A,/^G,/A,/B,/C/D/ | E/F/E/D/C/B,/ | A,A,,A, | G,G,,G, | F,F,,F, | E,^G,,E,, | A,,B,,C, | D,^F,D, | %26
 G,A,B, | CE,C, | ^F,G,A, | B,^D,B,, | E,/E/^F/^D/E/G/ | A,/^F/B,/A,/G,/^F,/ | G,B,,E,- | %33
 E,^D,^F,- | F,/E,/^D,/E,/^F,/G,/ | A,/C/^F,/C/B,/A,/ | G,^F,/E,/C- | CB,/A,/D | %38
 B,/G,/A,/^F,/G,/B,/ | E/^F,/G,/E,/F,/A,/ | D/E,/^F,/D,/E,/G,/ | CA,D, | B,G,C, | %43
 A,/B,,/C,/A,,/B,,/^D,/ | G,^F,E, | ^D,B,,D, | E,E,,E,- | E,/^D,/E,/^C,/D,/B,,/ | E,E,,E, | %49
 B,,/C,/B,,/A,,/G,,/^F,,/ | G,,/B,,/C,/A,,/B,,/G,,/ | ^F,,/B,,/C,/A,,/B,,/F,,/ | %52
 E,,/B,,/C,/A,,/B,,/E,,/ | ^D,,/^F,,/B,,/G,,/A,,/F,,/ | G,,^F,,E,, | A,,C,A,, | D,E,^F, | G,B,G, | %58
 CE,C, | ^F,A,F, | B,^D,B,, | E,/E/^F/^D/E/G/ | A,C^F, | G,B,E, | CA,B, | E,/^F,/G,/A,/_B,/D,/ | %66
 ^C,E,C, | A,,^C z | E,A,^C, | D,/E,/F,/G,/_A,/C,/ | B,,D,B,, | G,,B, z | D,G,B,, | %73
 C,/D,/E,/B,,/C,/A,,/ | F,,F, z | B,,B, z | A,D,F, | E,/F,/E,/D,/C,/B,,/ | A,,A,A,, | G,,G,G,, | %80
 F,,F,F,, | E,,^G,,E,, | A,,C,A,, | D,E,F, | G,A,G, | C,D,E, | F,A,F, | B,,C,D, | E,^G,E, | A,CA, | %90
 F,E,D, | ^C,B,,A,, | D,/F,/A,/E,/F,/A,/ | DFB, | CEA, | F,D,E, | A,A,,A,- | A,/^G,/A,/^F,/G,/E,/ | %98
 A,A,,A, | E,/F,/E,/D,/C,/B,,/ | A,,/E,/F,/_D,/E,/A,,/ | B,,/E,/F,/D,/E,/B,,/ | %102
 C,/E,/F,/D,/E,/C,/ | D,3- | D,/B,,/C,/A,,/B,,/D,/ | ^G,3- | G,/E,/F,/D,/E,/^G,/ | CEA, | FDG, | %109
 ECF, | D/B,/C/A,/B,/D/ | G/A,/B,/^G,/A,/C/ | F/^G,/A,/^F,/G,/B,/ | E/^F,/^G,/E,/F,/A,/ | %114
 ^D,^F,D, | E,/D,/B,,/^G,,/B,,/D,/ | C,,D,,E,, | F,,A,,D, | ^D,E,E,, | A,,3 |] %120

